src/assets/hangboards/METOLIUSDELUXE.svg

<svg height="179" viewBox="0 0 339 179" width="339" xmlns="http://www.w3.org/2000/svg"><g fill="#fff" fill-rule="evenodd" stroke="#000" transform="translate(1.15697 .537109)"><path d="m337.84303 177.697266h-319.484375l-18.05273437-113.8437504c-3.69140625-42.5690104 26.02408857-63.8535156 89.14648437-63.8535156h248.390625"/><rect height="33" rx="16.5" width="92" x="203.84303" y="129.462891"/><rect height="33" rx="16.5" width="92" x="179.84303" y="81.462891"/><rect height="33" rx="16.5" width="92" x="100.84303" y="129.462891"/><rect height="33" rx="16.5" width="64" x="100.84303" y="81.462891"/><rect height="33" rx="16.5" width="49" x="22.84303" y="129.462891"/><rect height="33" rx="16.5" width="49" x="22.84303" y="81.462891"/><rect height="23" rx="11.5" width="46" x="220.84303" y="46.462891"/><rect height="23" rx="11.5" width="75" x="136.84303" y="46.462891"/><path d="m337.84303 16.9238281h-191c-3.532389-11.28255206-10.441406-16.9238281-20.727051-16.9238281h211.727051"/><path d="m3.54176047 36.8378906c12.06738283-30.45117185 53.55093553-36.8378906 85.91064453-36.8378906h43.390625c9.333333 5.6484375 14 11.2897135 14 16.9238281 0 0-70.3589175-3.0581397-105.0722656 2.190918-35.72207863 5.4015894-36.13406214 17.7231445-38.22900393 17.7231445z"/></g></svg>

<?xml version="1.0" encoding="UTF-8"?>
<svg width="339px" height="179px" viewBox="0 0 339 179" version="1.1" xmlns="http://www.w3.org/2000/svg" xmlns:xlink="http://www.w3.org/1999/xlink">
    <!-- Generator: Sketch 63.1 (92452) - https://sketch.com -->
    <title>METOLIUSDELUXE</title>
    <desc>Created with Sketch.</desc>
    <g id="Page-1" stroke="none" stroke-width="1" fill="none" fill-rule="evenodd">
        <g id="METOLIUSDELUXE" transform="translate(1.156970, 0.537109)" fill="#FFFFFF" stroke="#000000">
            <path d="M337.84303,177.697266 L18.358655,177.697266 L0.305920626,63.8535156 C-3.38548562,21.2845052 26.3300092,1.27897692e-13 89.452405,1.27897692e-13 C152.574801,1.27897692e-13 235.371676,1.27897692e-13 337.84303,1.27897692e-13" id="hanngboard"></path>
            <rect id="h10" x="203.84303" y="129.462891" width="92" height="33" rx="16.5"></rect>
            <rect id="h7" x="179.84303" y="81.4628906" width="92" height="33" rx="16.5"></rect>
            <rect id="h9" x="100.84303" y="129.462891" width="92" height="33" rx="16.5"></rect>
            <rect id="h6" x="100.84303" y="81.4628906" width="64" height="33" rx="16.5"></rect>
            <rect id="h8" x="22.84303" y="129.462891" width="49" height="33" rx="16.5"></rect>
            <rect id="h5" x="22.84303" y="81.4628906" width="49" height="33" rx="16.5"></rect>
            <rect id="h4" x="220.84303" y="46.4628906" width="46" height="23" rx="11.5"></rect>
            <rect id="h3" x="136.84303" y="46.4628906" width="75" height="23" rx="11.5"></rect>
            <path d="M337.84303,16.9238281 L146.84303,16.9238281 C143.310641,5.64127604 136.401624,4.52970994e-13 126.115979,4.52970994e-13 C126.115979,4.52970994e-13 196.691663,4.52970994e-13 337.84303,4.52970994e-13" id="h2"></path>
            <path d="M3.54176047,36.8378906 C15.6091433,6.38671875 57.092696,4.97379915e-14 89.452405,4.97379915e-14 L132.84303,4.97379915e-14 C142.176363,5.6484375 146.84303,11.2897135 146.84303,16.9238281 C146.84303,16.9238281 76.4841125,13.8656884 41.7707644,19.1147461 C6.04868577,24.5163355 5.63670226,36.8378906 3.54176047,36.8378906 Z" id="h1"></path>
        </g>
    </g>
</svg>
